X:185
T:The Winona Flash
C:Terence "Cuz" Teahan
B:Terry "Cuz" Teahan "Sliabh Luachra on Parade" 1980
Z:Patrick Cavanagh
M:4/4
L:1/8
R:Reel
K:G
A |: GEDE FGAF | B/c/d AF EGFE | B/c/d ed afge | B/c/d AF GEE2 :| 
| AGED EAAG | eged efge | gedB efge | aged eAA2 :|| 

